outputs/icons/action/credit_card_round.svg

<svg xmlns="http://www.w3.org/2000/svg" width="1200" height="1200" fill="none"><g clip-path="url(#a)"><path fill="#000" d="M1000 200H200c-55.5 0-99.5 44.5-99.5 100l-.5 600c0 55.5 44.5 100 100 100h800c55.5 0 100-44.5 100-100V300c0-55.5-44.5-100-100-100m-50 700H250c-27.5 0-50-22.5-50-50V600h800v250c0 27.5-22.5 50-50 50m50-500H200V300h800z"/></g><defs><clipPath id="a"><path fill="#fff" d="M0 0h1200v1200H0z"/></clipPath></defs></svg>

<svg width="1200" height="1200" viewBox="0 0 1200 1200" fill="none" xmlns="http://www.w3.org/2000/svg"><g clip-path="url(#clip0_223_1911)"><path d="M1000 200H200C144.5 200 100.5 244.5 100.5 300L100 900C100 955.5 144.5 1000 200 1000H1000C1055.5 1000 1100 955.5 1100 900V300C1100 244.5 1055.5 200 1000 200ZM950 900H250C222.5 900 200 877.5 200 850V600H1000V850C1000 877.5 977.5 900 950 900ZM1000 400H200V300H1000V400Z" fill="black"/></g><defs><clipPath id="clip0_223_1911"><path width="24" fill="white" d="M0 0H1200V1200H0V0z"/></clipPath></defs></svg>
